Sources/FrostedUI/Resources/Icons.xcassets/gifFilled12.imageset/gif-filled-12.svg

<svg width="12" height="12" viewBox="0 0 12 12" fill="none" xmlns="http://www.w3.org/2000/svg" data-fui-icon="true">
  <path
    d="M5.99994 0C6.80487 0 7.44626 -0.000265484 7.96574 0.0351559C8.49179 0.0710479 8.94783 0.146035 9.37588 0.323239C10.4172 0.754578 11.2453 1.58266 11.6766 2.624C11.8539 3.05207 11.9288 3.50805 11.9647 4.03414C12.0002 4.55363 11.9999 5.19495 11.9999 5.99994C11.9999 6.80493 12.0002 7.44624 11.9647 7.96574C11.9288 8.49183 11.8539 8.9478 11.6766 9.37588C11.2453 10.4172 10.4172 11.2453 9.37588 11.6766C8.94783 11.8538 8.49179 11.9288 7.96574 11.9647C7.44626 12.0001 6.80487 11.9999 5.99994 11.9999C5.19501 11.9999 4.55361 12.0001 4.03414 11.9647C3.5081 11.9288 3.05204 11.8539 2.624 11.6766C1.58269 11.2453 0.754569 10.4172 0.323239 9.37588C0.146017 8.94781 0.0710496 8.49181 0.0351559 7.96574C-0.000273244 7.44624 0 6.80492 0 5.99994C0 5.19495 -0.000273222 4.55363 0.0351559 4.03414C0.0710496 3.50807 0.146017 3.05206 0.323239 2.624C0.754569 1.58267 1.58269 0.754596 2.624 0.323239C3.05204 0.146018 3.5081 0.0710541 4.03414 0.0351559C4.55361 -0.000271996 5.19501 -2.75986e-08 5.99994 0ZM3.86129 4.24996C3.10963 4.25029 2.50024 4.8596 2.49997 5.61127V6.35052C2.50011 7.12136 3.12559 7.74693 3.89644 7.74699C4.56809 7.74674 5.11297 7.20185 5.11323 6.53021V6.46575C5.11306 6.04651 4.79399 5.70174 4.3857 5.6601L4.30269 5.65619C4.02661 5.65626 3.8027 5.88009 3.8027 6.15619C3.80293 6.35829 3.9239 6.5307 4.09664 6.60931C4.06486 6.68933 3.98773 6.74681 3.89644 6.747C3.67787 6.74694 3.5001 6.56908 3.49996 6.35052V5.61127C3.50023 5.41188 3.66191 5.25028 3.86129 5.24995C4.03968 5.24995 4.13286 5.29811 4.17086 5.32319C4.19176 5.33704 4.20316 5.34843 4.20601 5.35151C4.20549 5.3509 4.2041 5.34988 4.20308 5.34858C4.20169 5.34672 4.1995 5.34409 4.19722 5.34077C4.19601 5.33897 4.19476 5.33619 4.19332 5.33393L4.25484 5.4101C4.41507 5.57526 4.67353 5.61276 4.8769 5.48627C5.11123 5.34035 5.18285 5.03219 5.03706 4.7978L5.03608 4.79683V4.79585L5.03413 4.79292C5.03324 4.79152 5.03218 4.78957 5.0312 4.78804C5.02902 4.78471 5.02604 4.78117 5.02339 4.7773C5.0178 4.76911 5.01067 4.75937 5.00288 4.74898C4.98722 4.7281 4.96679 4.70242 4.94136 4.67476C4.89033 4.61932 4.81814 4.55299 4.72163 4.48921C4.52324 4.35821 4.23936 4.24996 3.86129 4.24996ZM6.17181 4.24996C5.89573 4.25002 5.67182 4.47385 5.67182 4.74995V7.247C5.67206 7.52289 5.89588 7.74693 6.17181 7.74699C6.44763 7.74679 6.67156 7.5228 6.67181 7.247V4.74995C6.67181 4.47393 6.44778 4.25015 6.17181 4.24996ZM8.24992 4.24996C7.69769 4.25002 7.24993 4.69771 7.24993 5.24995V7.247C7.25017 7.52288 7.47399 7.74693 7.74992 7.74699C8.02591 7.74699 8.24967 7.52293 8.24992 7.247V6.49798H8.75577C9.03183 6.49798 9.25563 6.27401 9.25577 5.99799C9.25556 5.72202 9.03178 5.49799 8.75577 5.49799H8.24992V5.24995H8.93839C9.21443 5.24993 9.43825 5.02597 9.43838 4.74995C9.43838 4.47382 9.21451 4.24997 8.93839 4.24996H8.24992Z"
    fill="currentColor"
  />
</svg>

<svg xmlns="http://www.w3.org/2000/svg" width="12" height="12" fill="none" data-fui-icon="true" viewBox="0 0 12 12"><path fill="currentColor" d="M6 0c.805 0 1.446 0 1.966.035.526.036.982.111 1.41.288a4.25 4.25 0 0 1 2.3 2.301c.178.428.253.884.289 1.41C12 4.554 12 5.195 12 6s0 1.446-.035 1.966c-.036.526-.111.982-.288 1.41a4.25 4.25 0 0 1-2.301 2.3c-.428.178-.884.253-1.41.289C7.446 12 6.805 12 6 12s-1.446 0-1.966-.035c-.526-.036-.982-.111-1.41-.288a4.25 4.25 0 0 1-2.3-2.301C.145 8.948.07 8.492.034 7.966 0 7.446 0 6.805 0 6s0-1.446.035-1.966c.036-.526.111-.982.288-1.41a4.25 4.25 0 0 1 2.301-2.3c.428-.178.884-.253 1.41-.289C4.554 0 5.195 0 6 0M3.86 4.25c-.751 0-1.36.61-1.361 1.361v.74c0 .77.626 1.396 1.396 1.396.672 0 1.217-.545 1.217-1.217v-.064a.81.81 0 0 0-.727-.806l-.083-.004a.5.5 0 0 0-.206.953.22.22 0 0 1-.2.138.397.397 0 0 1-.397-.396v-.74c0-.2.162-.36.361-.361a.55.55 0 0 1 .31.073q.03.022.035.029l-.003-.003-.006-.008-.004-.007.062.076a.5.5 0 0 0 .782-.612v-.002l-.003-.003-.003-.005-.008-.01a1 1 0 0 0-.082-.103 1.2 1.2 0 0 0-.22-.186 1.54 1.54 0 0 0-.86-.239m2.31 0a.5.5 0 0 0-.5.5v2.497a.5.5 0 0 0 1 0V4.75a.5.5 0 0 0-.5-.5m2.079 0a1 1 0 0 0-1 1v1.997a.5.5 0 0 0 1 0v-.749h.506a.5.5 0 0 0 0-1H8.25V5.25h.688a.5.5 0 0 0 0-1z"/></svg>
